assets/svg/1f4b4.svg

<svg xmlns="http://www.w3.org/2000/svg" viewBox="0 0 64 64" enable-background="new 0 0 64 64"><path fill="#89664c" d="m0 46.5h64v9h-64z"/><path fill="#d3976e" d="m0 8.5h64v38h-64z"/><path fill="#94989b" d="m24 46.5h16v9h-16z"/><path fill="#89664c" d="m4 12.5h56v30h-56z"/><path fill="#d3976e" d="m7 15.5h50v24h-50z"/><circle fill="#89664c" cx="45" cy="27.499" r="8"/><path fill="#d0d0d0" d="m24 8.5h16v38h-16z"/><path fill="#fff" d="m22 21.21l-1.213-1.71-4.787 4.58-4.787-4.58-1.213 1.71 4.498 4.306h-2.313v2.219h2.865v2.219h-2.865v2.216h2.865v3.328h1.904v-3.328h2.86v-2.216h-2.86v-2.219h2.86v-2.219h-2.312z"/></svg>

<svg xmlns="http://www.w3.org/2000/svg" width="64" height="64" viewBox="0 0 64 64"><path fill="#89664C" d="M0 46.5h64v9H0z"/><path fill="#D3976E" d="M0 8.5h64v38H0z"/><path fill="#94989B" d="M24 46.5h16v9H24z"/><path fill="#89664C" d="M4 12.5h56v30H4z"/><path fill="#D3976E" d="M7 15.5h50v24H7z"/><circle fill="#89664C" cx="45" cy="27.499" r="8"/><path fill="#D0D0D0" d="M24 8.5h16v38H24z"/><path fill="#FFF" d="M22 21.212L20.787 19.5 16 24.079 11.213 19.5 10 21.212l4.498 4.304h-2.313v2.219h2.862v2.219h-2.862v2.216h2.862v3.328h1.907V32.17h2.86v-2.216h-2.86v-2.219h2.86v-2.219h-2.312z"/></svg>
